X:1
T:A Lingering Star
M:4/4
L:1/8
K:Eb
 z4 z2G-A| B2 c3/2- B/2 B2e-c| B2G-E F2G-A| B2 c3/2- B/2 B2 e/2- c3/2|\
 B/2- G3/2 F3/2- G/2 E2G-A| B2 c3/2- B/2 B2e-c| B2G-E F2 G3/2- A/2|\
 B2 c3/2- B/2 B2 e3/2- B/2| B/2- G3/2 F3/2- G/2 E2 B3/2- d/2|e-dc-B B2A-c|\
 B2G-E F2 B-c/2-d/2|e-dc-B B2A-c| B/2- G3/2 F3/2- G/2 E2 B3/2- d/2|\
e-d-c-B B2 A3/2- c/2| B2G-E F2G-A|B-cB-AG-Be-c| B/2- G3/2 F3/2 G/2 E2 z2|\
